X: 6738
T: Champion, The
R: reel
M: 4/4
K: Edorian
|:B2BA BEED|~B2Ad BEED|A3B AFDE|(3FED AF BAFA|
B2BA BEED|~B2Ad BEED|A3B AFDE|(3FED AF EFGA:|
|:Beed Bggf|Beed Bggf|Aded Aggf|Aded fgfd|
Beed Bggf|Beed e2ba|~g3f (3efg fe|dBAF BFAF:|

